; generated by PrusaSlicer 2.5.0+MacOS-x64 on 2022-12-10 at 20:50:06 UTC

; 

; external perimeters extrusion width = 0.45mm
; perimeters extrusion width = 0.45mm
; infill extrusion width = 0.45mm
; solid infill extrusion width = 0.45mm
; top infill extrusion width = 0.40mm
; first layer extrusion width = 0.42mm

M107
M190 S60 ; set bed temperature and wait for it to be reached
M104 S200 ; set temperature
;TYPE:Custom
G28 ; home all axes
G1 Z5 F5000 ; lift nozzle
M109 S200 ; set temperature and wait for it to be reached
G21 ; set units to millimeters
G90 ; use absolute coordinates
M82 ; use absolute distances for extrusion
G92 E0
; Filament gcode
M107
;LAYER_CHANGE
;Z:0.25
;HEIGHT:0.25
G1 Z.25 F7800
G1 E-2 F2400
G92 E0
G1 X26.314 Y38.095 F7800
G1 E2 F2400
;TYPE:Skirt/Brim
;WIDTH:0.42
G1 F1800
G1 X28.506 Y37.182 E2.09042
G1 X30.1 Y37.001 E2.1515
G1 X89.9 Y37.001 E4.42854
G1 X92.241 Y37.398 E4.51897
G1 X94.321 Y38.545 E4.60939
G1 X95.905 Y40.314 E4.69981
G1 X96.818 Y42.506 E4.79023
G1 X96.999 Y44.1 E4.85131
G1 X96.999 Y75.9 E6.06218
G1 X96.602 Y78.241 E6.1526
G1 X95.455 Y80.321 E6.24303
G1 X93.686 Y81.905 E6.33345
G1 X91.494 Y82.818 E6.42387
G1 X89.9 Y82.999 E6.48495
G1 X66.1 Y82.999 E7.3912
G1 X63.217 Y82.387 E7.50343
G1 X27.217 Y66.387 E9.00351
G1 X25.239 Y65.073 E9.09394
G1 X23.804 Y63.181 E9.18436
G1 X23.001 Y59.9 E9.31297
G1 X23.001 Y44.1 E9.9146
G1 X23.398 Y41.759 E10.00502
G1 X24.545 Y39.679 E10.09544
G1 X26.269 Y38.135 E10.18358
G1 X26.523 Y38.431 F7800
G1 F1800
G1 X26.665 Y38.309 E10.19071
G1 X28.827 Y37.489 E10.27876
G1 X30.1 Y37.367 E10.32746
G1 X89.9 Y37.367 E12.6045
G1 X92.178 Y37.764 E12.69254
G1 X94.187 Y38.909 E12.78058
G1 X95.691 Y40.665 E12.86862
G1 X96.511 Y42.827 E12.95667
G1 X96.633 Y44.1 E13.00537
G1 X96.633 Y75.9 E14.21624
G1 X96.236 Y78.178 E14.30428
G1 X95.091 Y80.187 E14.39232
G1 X93.335 Y81.691 E14.48036
G1 X91.173 Y82.511 E14.5684
G1 X89.9 Y82.633 E14.6171
G1 X66.1 Y82.633 E15.52335
G1 X63.366 Y82.052 E15.62979
G1 X27.366 Y66.052 E17.12987
G1 X25.445 Y64.764 E17.21792
G1 X24.074 Y62.903 E17.30596
G1 X23.367 Y59.9 E17.42342
G1 X23.367 Y44.1 E18.02505
G1 X23.764 Y41.822 E18.11309
G1 X24.909 Y39.813 E18.20113
G1 X26.477 Y38.47 E18.27976
G1 X26.721 Y38.77 F7800
G1 F1800
G1 X27.015 Y38.531 E18.29416
G1 X30.1 Y37.734 E18.4155
G1 X89.9 Y37.734 E20.69255
G1 X92.113 Y38.131 E20.77814
G1 X94.049 Y39.272 E20.86374
G1 X95.469 Y41.015 E20.94933
G1 X96.266 Y44.1 E21.07067
G1 X96.266 Y75.9 E22.28154
G1 X95.869 Y78.113 E22.36714
G1 X94.728 Y80.049 E22.45273
G1 X92.985 Y81.469 E22.53833
G1 X89.9 Y82.266 E22.65967
G1 X66.1 Y82.266 E23.56592
G1 X63.514 Y81.718 E23.66656
G1 X27.514 Y65.718 E25.16665
G1 X25.654 Y64.456 E25.25224
G1 X24.347 Y62.627 E25.33784
G1 X23.734 Y59.9 E25.44427
G1 X23.734 Y44.1 E26.0459
G1 X24.131 Y41.887 E26.13149
G1 X25.272 Y39.951 E26.21709
G1 X26.675 Y38.808 E26.286
G1 E24.286 F2400
G92 E0
G1 X35.269 Y50.715 F7800
G1 E2 F2400
;TYPE:External perimeter
;WIDTH:0.449498
G1 F1800
G1 X35.595 Y50.176 E2.02591
G1 X36.027 Y49.716 E2.05187
G1 X36.545 Y49.356 E2.07783
;WIDTH:0.45026
G1 X37.118 Y49.113 E2.1035
G1 X37.747 Y48.993 E2.12987
;WIDTH:0.449497
G1 X38.377 Y49.006 E2.15581
G1 X38.991 Y49.149 E2.18177
G1 X39.562 Y49.418 E2.20773
G1 X40.065 Y49.799 E2.23369
G1 X40.478 Y50.277 E2.25965
G1 X40.782 Y50.829 E2.28561
G1 X40.964 Y51.433 E2.31157
G1 X41.017 Y52.062 E2.33753
G1 X40.939 Y52.688 E2.36349
G1 X40.731 Y53.284 E2.38945
G1 X40.404 Y53.823 E2.41537
G1 X39.973 Y54.284 E2.44136
G1 X39.455 Y54.644 E2.46732
G1 X38.873 Y54.889 E2.49328
G1 X38.254 Y55.007 E2.51924
G1 X37.623 Y54.994 E2.5452
G1 X37.009 Y54.851 E2.57116
G1 X36.438 Y54.582 E2.59712
G1 X35.935 Y54.201 E2.62308
G1 X35.522 Y53.723 E2.64904
G1 X35.218 Y53.171 E2.675
G1 X35.036 Y52.567 E2.70096
;WIDTH:0.450584
G1 X34.979 Y52.021 E2.7236
G1 X34.983 Y51.938 E2.72702
;WIDTH:0.449498
G1 X35.061 Y51.312 E2.75298
G1 X35.249 Y50.771 E2.77652
G1 X35.668 Y50.681 F7800
G1 X35.429 Y51.475
;WIDTH:0.450584
G1 F1800
G1 X35.429 Y51.475 E2.77655
;WIDTH:0.449496
G1 X35.595 Y50.952 E2.79912
G1 X35.865 Y50.475 E2.82169
G1 X36.229 Y50.064 E2.84426
G1 X36.67 Y49.738 E2.86683
G1 X37.163 Y49.514 E2.88909
G1 X37.705 Y49.393 E2.91193
G1 X38.254 Y49.389 E2.93453
G1 X38.791 Y49.498 E2.95709
G1 X39.294 Y49.717 E2.97966
G1 X39.74 Y50.036 E3.00223
G1 X40.111 Y50.441 E3.0248
G1 X40.389 Y50.914 E3.04737
G1 X40.562 Y51.434 E3.06994
G1 X40.624 Y51.979 E3.09251
G1 X40.571 Y52.525 E3.11507
G1 X40.405 Y53.048 E3.13764
G1 X40.135 Y53.526 E3.16021
G1 X39.771 Y53.936 E3.18278
G1 X39.33 Y54.262 E3.20535
G1 X38.83 Y54.489 E3.22792
G1 X38.295 Y54.607 E3.25049
G1 X37.746 Y54.612 E3.27306
G1 X37.209 Y54.502 E3.29562
G1 X36.706 Y54.283 E3.31819
G1 X36.26 Y53.964 E3.34076
G1 X35.889 Y53.559 E3.36333
G1 X35.611 Y53.086 E3.3859
G1 X35.438 Y52.566 E3.40847
G1 X35.376 Y52.021 E3.43104
;WIDTH:0.450584
G1 X35.375 Y52 E3.43189
G1 X35.423 Y51.535 E3.45118
G1 E1.45118 F2400
G92 E0
G1 X30.719 Y44.719 F7800
G1 E2 F2400
;TYPE:Perimeter
;WIDTH:0.505263
G1 F1800
G1 X31.138 Y44.699 E2.01967
;WIDTH:0.465334
G1 X31.33 Y44.679 E2.02797
;WIDTH:0.425405
G1 X31.523 Y44.659 E2.03545
;WIDTH:0.385476
G1 X44.477 Y44.659 E2.48222
;WIDTH:0.425406
G1 X44.745 Y44.679 E2.4926
;WIDTH:0.465335
G1 X45.013 Y44.699 E2.50411
;WIDTH:0.505264
G1 X45.281 Y44.719 E2.51672
G1 X45.301 Y45.138 E2.53639
;WIDTH:0.465335
G1 X45.321 Y45.33 E2.54469
;WIDTH:0.425406
G1 X45.341 Y45.523 E2.55218
;WIDTH:0.385476
G1 X45.341 Y47.677 E2.62646
;WIDTH:0.390766
G1 X45.341 Y48.323 E2.6491
;WIDTH:0.385476
G1 X45.341 Y55.677 E2.90273
;WIDTH:0.390766
G1 X45.341 Y56.323 E2.92537
;WIDTH:0.385476
G1 X45.341 Y58.477 E2.99965
;WIDTH:0.390766
G1 X45.338 Y58.598 E3.00391
;WIDTH:0.428932
G1 X45.319 Y58.826 E3.01282
;WIDTH:0.467098
G1 X45.3 Y59.053 E3.02263
;WIDTH:0.505264
G1 X45.281 Y59.281 E3.03335
G1 X44.862 Y59.301 E3.05302
;WIDTH:0.465335
G1 X44.67 Y59.321 E3.06131
;WIDTH:0.425406
G1 X44.477 Y59.341 E3.0688
;WIDTH:0.385476
G1 X31.523 Y59.341 E3.51557
;WIDTH:0.425405
G1 X31.255 Y59.321 E3.52595
;WIDTH:0.465334
G1 X30.987 Y59.301 E3.53746
;WIDTH:0.505263
G1 X30.719 Y59.281 E3.55007
G1 X30.699 Y58.862 E3.56974
;WIDTH:0.465334
G1 X30.679 Y58.67 E3.57804
;WIDTH:0.425405
G1 X30.659 Y58.477 E3.58553
;WIDTH:0.385476
G1 X30.659 Y45.523 E4.03229
;WIDTH:0.425405
G1 X30.679 Y45.255 E4.04268
;WIDTH:0.465334
G1 X30.699 Y44.987 E4.05418
;WIDTH:0.505263
G1 X30.715 Y44.779 E4.06398
G1 X30.31 Y44.31 F7800
;TYPE:External perimeter
;WIDTH:0.419999
G1 F1800
G1 X45.69 Y44.31 E4.64961
G1 X45.69 Y59.69 E5.23525
G1 X30.31 Y59.69 E5.82088
G1 X30.31 Y44.37 E6.40423
G1 X30.696 Y44.414 F7800
G1 X30.991 Y45.823
;TYPE:Perimeter
;WIDTH:0.385476
G1 F1800
G1 X30.991 Y45.523 E6.41457
;WIDTH:0.425405
G1 X31.029 Y45.384 E6.42015
;WIDTH:0.465334
G1 X31.067 Y45.244 E6.42634
;WIDTH:0.505263
G1 X31.104 Y45.104 E6.43313
G1 X31.244 Y45.067 E6.43992
;WIDTH:0.465334
G1 X31.384 Y45.029 E6.44611
;WIDTH:0.425405
G1 X31.523 Y44.991 E6.45169
;WIDTH:0.385476
G1 X33.677 Y44.991 E6.52597
;WIDTH:0.422874
G1 X33.919 Y45.028 E6.53537
G1 X34 Y45.082 E6.5391
G1 X34.231 Y44.996 E6.54855
;WIDTH:0.390766
G1 X34.323 Y44.991 E6.55179
;WIDTH:0.385476
G1 X41.677 Y44.991 E6.80542
;WIDTH:0.422874
G1 X41.919 Y45.028 E6.81481
G1 X42 Y45.082 E6.81855
G1 X42.231 Y44.996 E6.82799
;WIDTH:0.390766
G1 X42.323 Y44.991 E6.83124
;WIDTH:0.385476
G1 X44.477 Y44.991 E6.90552
;WIDTH:0.425406
G1 X44.616 Y45.029 E6.9111
;WIDTH:0.465335
G1 X44.756 Y45.067 E6.91729
;WIDTH:0.505264
G1 X44.896 Y45.104 E6.92408
G1 X44.933 Y45.244 E6.93087
;WIDTH:0.465335
G1 X44.971 Y45.384 E6.93706
;WIDTH:0.425406
G1 X45.009 Y45.523 E6.94264
;WIDTH:0.385476
G1 X45.009 Y47.677 E7.01692
;WIDTH:0.422874
G1 X44.972 Y47.919 E7.02632
G1 X44.918 Y48 E7.03005
G1 X44.972 Y48.081 E7.03379
G1 X45.009 Y48.323 E7.04319
;WIDTH:0.385476
G1 X45.009 Y55.677 E7.29681
;WIDTH:0.422874
G1 X44.972 Y55.919 E7.30621
G1 X44.918 Y56 E7.30994
G1 X44.972 Y56.081 E7.31367
G1 X45.009 Y56.323 E7.32307
;WIDTH:0.385476
G1 X45.009 Y58.477 E7.39735
;WIDTH:0.425406
G1 X44.971 Y58.616 E7.40294
;WIDTH:0.465335
G1 X44.933 Y58.756 E7.40913
;WIDTH:0.505264
G1 X44.896 Y58.896 E7.41592
G1 X44.756 Y58.933 E7.4227
;WIDTH:0.465335
G1 X44.616 Y58.971 E7.42889
;WIDTH:0.425406
G1 X44.477 Y59.009 E7.43448
;WIDTH:0.385476
G1 X42.323 Y59.009 E7.50876
;WIDTH:0.422874
G1 X42.081 Y58.972 E7.51816
G1 X42 Y58.918 E7.52189
G1 X41.769 Y59.004 E7.53133
;WIDTH:0.390766
G1 X41.677 Y59.009 E7.53458
;WIDTH:0.385476
G1 X34.323 Y59.009 E7.7882
;WIDTH:0.422874
G1 X34.081 Y58.972 E7.7976
G1 X34 Y58.918 E7.80133
G1 X33.769 Y59.004 E7.81078
;WIDTH:0.390766
G1 X33.677 Y59.009 E7.81402
;WIDTH:0.385476
G1 X31.523 Y59.009 E7.8883
;WIDTH:0.425405
G1 X31.384 Y58.971 E7.89389
;WIDTH:0.465334
G1 X31.244 Y58.933 E7.90008
;WIDTH:0.505263
G1 X31.104 Y58.896 E7.90686
G1 X31.067 Y58.756 E7.91365
;WIDTH:0.465334
G1 X31.029 Y58.616 E7.91984
;WIDTH:0.425405
G1 X30.991 Y58.477 E7.92543
;WIDTH:0.385476
G1 X30.991 Y56.323 E7.99971
;WIDTH:0.422874
G1 X31.028 Y56.081 E8.00911
G1 X31.082 Y56 E8.01284
G1 X30.996 Y55.769 E8.02228
;WIDTH:0.390766
G1 X30.991 Y55.677 E8.02553
;WIDTH:0.385476
G1 X30.991 Y48.323 E8.27915
;WIDTH:0.422874
G1 X31.028 Y48.081 E8.28855
G1 X31.082 Y48 E8.29228
G1 X30.996 Y47.769 E8.30173
;WIDTH:0.390766
G1 X30.991 Y47.677 E8.30497
;WIDTH:0.385476
G1 X30.991 Y45.883 E8.36684
G1 X31.34 Y45.523 F7800
;TYPE:External perimeter
;WIDTH:0.419999
G1 F1800
G1 X31.394 Y45.394 E8.37218
G1 X31.523 Y45.34 E8.37752
G1 X33.677 Y45.34 E8.45952
G1 X33.797 Y45.385 E8.46441
G1 X33.86 Y45.523 E8.47019
G1 X33.86 Y45.59 E8.47274
G1 X34.14 Y45.59 E8.4834
G1 X34.146 Y45.477 E8.4877
G1 X34.243 Y45.359 E8.49353
G1 X34.323 Y45.34 E8.49668
G1 X41.677 Y45.34 E8.77669
G1 X41.797 Y45.385 E8.78157
G1 X41.86 Y45.523 E8.78736
G1 X41.86 Y45.59 E8.7899
G1 X42.14 Y45.59 E8.80056
G1 X42.146 Y45.477 E8.80486
G1 X42.243 Y45.359 E8.81069
G1 X42.323 Y45.34 E8.81384
G1 X44.477 Y45.34 E8.89584
G1 X44.606 Y45.394 E8.90118
G1 X44.66 Y45.523 E8.90652
G1 X44.66 Y47.677 E8.98853
G1 X44.615 Y47.797 E8.99341
G1 X44.477 Y47.86 E8.9992
G1 X44.41 Y47.86 E9.00174
G1 X44.41 Y48.14 E9.0124
G1 X44.523 Y48.146 E9.0167
G1 X44.641 Y48.243 E9.02253
G1 X44.66 Y48.323 E9.02568
G1 X44.66 Y55.677 E9.30569
G1 X44.615 Y55.797 E9.31057
G1 X44.477 Y55.86 E9.31636
G1 X44.41 Y55.86 E9.3189
G1 X44.41 Y56.14 E9.32956
G1 X44.523 Y56.146 E9.33387
G1 X44.641 Y56.243 E9.33969
G1 X44.66 Y56.323 E9.34284
G1 X44.66 Y58.477 E9.42484
G1 X44.606 Y58.606 E9.43018
G1 X44.477 Y58.66 E9.43552
G1 X42.323 Y58.66 E9.51753
G1 X42.203 Y58.615 E9.52241
G1 X42.14 Y58.477 E9.5282
G1 X42.14 Y58.41 E9.53074
G1 X41.86 Y58.41 E9.5414
G1 X41.854 Y58.523 E9.54571
G1 X41.757 Y58.641 E9.55153
G1 X41.677 Y58.66 E9.55468
G1 X34.323 Y58.66 E9.83469
G1 X34.203 Y58.615 E9.83957
G1 X34.14 Y58.477 E9.84536
G1 X34.14 Y58.41 E9.8479
G1 X33.86 Y58.41 E9.85856
G1 X33.854 Y58.523 E9.86287
G1 X33.757 Y58.641 E9.8687
G1 X33.677 Y58.66 E9.87184
G1 X31.523 Y58.66 E9.95385
G1 X31.394 Y58.606 E9.95918
G1 X31.34 Y58.477 E9.96452
G1 X31.34 Y56.323 E10.04653
G1 X31.385 Y56.203 E10.05141
G1 X31.523 Y56.14 E10.0572
G1 X31.59 Y56.14 E10.05974
G1 X31.59 Y55.86 E10.0704
G1 X31.477 Y55.854 E10.07471
G1 X31.359 Y55.757 E10.08054
G1 X31.34 Y55.677 E10.08368
G1 X31.34 Y48.323 E10.36369
G1 X31.385 Y48.203 E10.36857
G1 X31.523 Y48.14 E10.37436
G1 X31.59 Y48.14 E10.3769
G1 X31.59 Y47.86 E10.38757
G1 X31.477 Y47.854 E10.39187
G1 X31.359 Y47.757 E10.3977
G1 X31.34 Y47.677 E10.40084
G1 X31.34 Y45.583 E10.48056
G1 X31.241 Y45.424 F7800
G1 E8.48056 F2400
G92 E0
G1 X76.284 Y50.027 F7800
G1 E2 F2400
;WIDTH:0.449497
G1 F1800
G1 X76.644 Y50.545 E2.02595
G1 X76.889 Y51.127 E2.05191
G1 X77.007 Y51.746 E2.07787
G1 X76.994 Y52.377 E2.10383
G1 X76.851 Y52.991 E2.12979
G1 X76.582 Y53.562 E2.15575
G1 X76.201 Y54.065 E2.18171
G1 X75.723 Y54.478 E2.20766
G1 X75.171 Y54.782 E2.23362
G1 X74.567 Y54.964 E2.25958
G1 X73.938 Y55.017 E2.28554
G1 X73.312 Y54.939 E2.3115
G1 X72.716 Y54.731 E2.33746
G1 X72.176 Y54.405 E2.36342
G1 X71.713 Y53.969 E2.38957
G1 X71.344 Y53.429 E2.4165
G1 X71.111 Y52.873 E2.44128
G1 X70.993 Y52.254 E2.46724
;WIDTH:0.450584
G1 X70.993 Y51.684 E2.49075
G1 X71.006 Y51.623 E2.49332
;WIDTH:0.449497
G1 X71.149 Y51.009 E2.51928
G1 X71.418 Y50.438 E2.54524
G1 X71.799 Y49.935 E2.5712
G1 X72.277 Y49.522 E2.59716
G1 X72.829 Y49.218 E2.62312
G1 X73.436 Y49.036 E2.64916
;WIDTH:0.452336
G1 X74.057 Y48.983 E2.675
G1 X74.688 Y49.061 E2.70135
;WIDTH:0.449497
G1 X75.284 Y49.269 E2.72731
G1 X75.824 Y49.595 E2.75327
G1 X76.24 Y49.986 E2.77678
G1 X76.153 Y50.405 F7800
G1 X75.936 Y50.229
G1 F1800
G1 X76.262 Y50.67 E2.79936
G1 X76.489 Y51.17 E2.82193
G1 X76.607 Y51.705 E2.8445
G1 X76.612 Y52.254 E2.86707
G1 X76.502 Y52.791 E2.88964
G1 X76.283 Y53.294 E2.91221
G1 X75.964 Y53.74 E2.93478
G1 X75.559 Y54.111 E2.95735
G1 X75.086 Y54.389 E2.97992
G1 X74.566 Y54.562 E3.00249
G1 X74.021 Y54.624 E3.02505
G1 X73.475 Y54.571 E3.04762
G1 X72.952 Y54.405 E3.07019
G1 X72.474 Y54.135 E3.09276
G1 X72.064 Y53.771 E3.11534
;WIDTH:0.452486
G1 X71.724 Y53.303 E3.13932
G1 X71.511 Y52.83 E3.1608
;WIDTH:0.449495
G1 X71.388 Y52.254 E3.18506
;WIDTH:0.449497
G1 X71.388 Y51.746 E3.20593
G1 X71.498 Y51.209 E3.2285
G1 X71.717 Y50.706 E3.25107
G1 X72.036 Y50.26 E3.27364
G1 X72.441 Y49.889 E3.29621
G1 X72.914 Y49.611 E3.31878
G1 X73.434 Y49.438 E3.34135
G1 X73.951 Y49.381 E3.36274
G1 X74.523 Y49.429 E3.38635
G1 X75.048 Y49.595 E3.40902
G1 X75.525 Y49.865 E3.43159
G1 X75.891 Y50.189 E3.45167
G1 X76.326 Y50.142 F7800
G1 E1.45167 F2400
G92 E0
G1 X84.889 Y51.127 F7800
G1 E2 F2400
;WIDTH:0.449495
G1 F1800
G1 X85.007 Y51.746 E2.02595
G1 X84.994 Y52.377 E2.05191
G1 X84.851 Y52.991 E2.07786
G1 X84.582 Y53.562 E2.10382
G1 X84.201 Y54.065 E2.12978
G1 X83.723 Y54.478 E2.15574
G1 X83.171 Y54.782 E2.1817
G1 X82.567 Y54.964 E2.20766
G1 X81.938 Y55.017 E2.23362
G1 X81.312 Y54.939 E2.25958
G1 X80.716 Y54.731 E2.28554
G1 X80.176 Y54.405 E2.3115
G1 X79.713 Y53.969 E2.33765
G1 X79.344 Y53.429 E2.36458
G1 X79.111 Y52.873 E2.38936
G1 X78.993 Y52.254 E2.41532
;WIDTH:0.450582
G1 X78.993 Y51.684 E2.43882
G1 X79.006 Y51.623 E2.4414
;WIDTH:0.449498
G1 X79.149 Y51.009 E2.46736
G1 X79.418 Y50.438 E2.49332
G1 X79.799 Y49.935 E2.51928
G1 X80.277 Y49.522 E2.54524
G1 X80.829 Y49.218 E2.5712
G1 X81.436 Y49.036 E2.59724
;WIDTH:0.452336
G1 X82.057 Y48.983 E2.62307
G1 X82.688 Y49.061 E2.64943
;WIDTH:0.449495
G1 X83.284 Y49.269 E2.67539
G1 X83.824 Y49.595 E2.70135
G1 X84.284 Y50.027 E2.72731
G1 X84.644 Y50.545 E2.75327
G1 X84.866 Y51.072 E2.77678
G1 X84.615 Y51.419 F7800
G1 X84.489 Y51.169
G1 F1800
G1 X84.607 Y51.705 E2.79936
G1 X84.612 Y52.254 E2.82193
G1 X84.502 Y52.791 E2.8445
G1 X84.283 Y53.294 E2.86707
G1 X83.964 Y53.74 E2.88964
G1 X83.559 Y54.111 E2.91221
G1 X83.086 Y54.389 E2.93477
G1 X82.566 Y54.562 E2.95734
G1 X82.021 Y54.624 E2.97991
G1 X81.475 Y54.571 E3.00248
G1 X80.952 Y54.405 E3.02505
G1 X80.474 Y54.135 E3.04762
G1 X80.064 Y53.771 E3.07019
;WIDTH:0.452485
G1 X79.724 Y53.303 E3.09418
G1 X79.511 Y52.83 E3.11565
;WIDTH:0.449494
G1 X79.393 Y52.295 E3.13822
G1 X79.388 Y51.746 E3.16079
;WIDTH:0.449495
G1 X79.498 Y51.209 E3.18336
G1 X79.717 Y50.706 E3.20593
G1 X80.036 Y50.26 E3.2285
G1 X80.441 Y49.889 E3.25107
G1 X80.914 Y49.611 E3.27364
G1 X81.434 Y49.438 E3.29621
G1 X81.951 Y49.381 E3.31759
G1 X82.523 Y49.429 E3.34121
G1 X83.048 Y49.595 E3.36387
G1 X83.526 Y49.865 E3.38644
G1 X83.936 Y50.229 E3.40901
G1 X84.262 Y50.67 E3.43158
G1 X84.464 Y51.115 E3.45167
G1 X84.881 Y51.249 F7800
G1 E1.45167 F2400
G92 E0
G1 X82.061 Y56.984 F7800
G1 E2 F2400
;WIDTH:0.452335
G1 F1800
G1 X82.688 Y57.061 E2.02619
;WIDTH:0.449495
G1 X83.284 Y57.269 E2.05216
G1 X83.824 Y57.595 E2.07812
G1 X84.284 Y58.027 E2.10408
G1 X84.644 Y58.545 E2.13004
G1 X84.889 Y59.127 E2.156
G1 X85.007 Y59.746 E2.18196
G1 X84.994 Y60.377 E2.20792
G1 X84.851 Y60.991 E2.23388
G1 X84.582 Y61.562 E2.25984
G1 X84.201 Y62.065 E2.2858
G1 X83.723 Y62.478 E2.31176
G1 X83.171 Y62.782 E2.33772
G1 X82.567 Y62.964 E2.36368
G1 X81.938 Y63.017 E2.38964
G1 X81.312 Y62.939 E2.41559
G1 X80.716 Y62.731 E2.44156
G1 X80.176 Y62.405 E2.46751
G1 X79.713 Y61.969 E2.49366
